!!!COM: Anonymous
!!!CDT: fl. XV c. [?]
!!!OTL: O nadroższy kwiatku
!!!ODT: XV c.
!!!TXO: Polish
!!!voices: 2
!!!pag:
!!!EFL:
!!!YEM: Creative Commons CC/BY/NC/SA 4.0
!!!ENC: Marcin Konik
!!!END: 2014-12-01
!!!EED: Marcin Konik
!!!EEV:
!!!ONB: Encoded in vim by Marcin Konik
!!!CharacterEncoding: utf-8
!!!RDF**kern: l=long note in original notation
!!!RDF**kern: i=editorial accidental
!!!RDF**kern: > = above
!!!RDF**kern: < = below
!!muse2ps: z14jc180F
!!title: @{CDT}, @{OTL}, ed. @{ENC}
**kern	**kern
*part2	*part1
*staff2	*staff1
*clefGv2	*clefG2
*k[]	*k[]
*M2/1	*M2/1
=1-	=1-
1G	1g
2A	2f
2B	2g
=2	=2
2c	2a
2B	2g
2A	2cc
2G	2b
=3	=3
2c	2a
4c	4g
4d	2b
2e	.
.	4a
2d	4a
.	4a
=4	=4
1c	2.cc
.	4b
1f	2a
.	2a
=5	=5
2e	2g
2e	2cc
2d	2a
2A	[2a
=6	=6
2c	4a]
.	4g
2B	1g
1A	.
.	2f#i
=7	=7
0G	0g
=8	=8
1G	1g
2A	2f
2B	2g
=9	=9
2c	2a
2B	2g
2A	2cc
2G	2b
=10	=10
2c	2a
4c	4g
4d	2b
2e	.
.	4a
2d	4a
.	4a
=11	=11
1c	2.cc
.	4b
1f	2a
.	2a
=12	=12
2e	2g
2e	2cc
2d	2a
2A	[2a
=13	=13
2c	4a]
.	4g
2B	1g
1A	.
.	2f#i
=14	=14
1G	0g
2r	.
2g	.
=15	=15
2e	2r
2f	2dd
2g	2b
4f	2cc
4e	.
=16	=16
2d	2dd
2e	2g
2c	1a
2f	.
=17	=17
2e	2g
1d	2f
.	1e
4c#i	.
4B	.
=18	=18
1d	4d
.	4e
.	4f
.	4g
1f	2a
.	[2dd
=19	=19
2e	4dd]
.	4cc
4d	1cc
4c	.
1d	.
.	2b
=20	=20
1c	2cc
.	2a
2r	2b
2A	2cc
=21	=21
2B	2dd
2c	2.a
2.d	.
.	4g
.	2a
4c	.
=22	=22
2d	2b
2e	2.cc
2.f	.
.	4b
.	[2a
4e	.
=23	=23
2.d	4a]
.	4g
.	4f
4c	4e
2B	2d
2G	[2g
=24	=24
1A	2g]
.	2f#i
[1G	[1g
=25	=25
1G]	1g]
1r	1r
==	==
*-	*-
